svgs/source_wall.svg

<svg xmlns="http://www.w3.org/2000/svg" viewBox="0 0 192 192"><path d="M34.182 16C24.184 16 16 24.184 16 34.182v123.636C16 167.816 24.184 176 34.182 176h123.636c9.998 0 18.182-8.184 18.182-18.182V34.182C176 24.184 167.816 16 157.818 16Zm0 7.273h123.636a10.856 10.856 0 0 1 10.909 10.909v123.636a10.856 10.856 0 0 1-10.909 10.909H34.182a10.856 10.856 0 0 1-10.909-10.909V34.182a10.856 10.856 0 0 1 10.909-10.909Zm0 10.909v10.909h7.273V34.182Zm14.545 0v18.182H56V34.182Zm14.546 0v7.273h7.272v-7.273Zm14.545 0v14.545h7.273V34.182Zm14.546 0v7.273h7.272v-7.273Zm14.545 0v10.909h7.273V34.182Zm14.546 0v7.273h7.272v-7.273Zm14.545 0v10.909h7.273V34.182Zm14.545 0v18.182h7.273V34.182ZM63.273 48.727V56h7.272v-7.273Zm29.091 0V56h7.272v-7.273Zm-58.182 3.637v7.272h7.273v-7.272Zm72.727 0v7.272h7.273v-7.272Zm14.546 0v7.272h7.272v-7.272Zm14.545 0v7.272h7.273v-7.272ZM77.818 56v7.273h7.273V56Zm-29.091 3.636v7.273H56v-7.273Zm101.818 0v7.273h7.273v-7.273Zm-58.181 3.637v7.272h7.272v-7.272Zm-58.182 3.636v7.273h7.273v-7.273Zm29.091 0v7.273h7.272v-7.273Zm43.636 0v7.273h7.273v-7.273Zm29.091 0v7.273h7.273v-7.273Zm-58.182 3.636v7.273h7.273v-7.273Zm-29.091 3.637v7.273H56v-7.273Zm101.818 0v7.273h7.273v-7.273Zm-58.181 3.636v7.273h7.272v-7.273Zm29.091 0v7.273h7.272v-7.273ZM136 81.455v7.272h7.273v-7.272ZM34.182 85.091v7.273h7.273v-7.273Zm29.091 0v7.273h7.272v-7.273Zm14.545 0v7.273h7.273v-7.273Zm29.091 0v7.273h7.273v-7.273Zm43.636 3.636V96h7.273v-7.273ZM48.727 92.364v7.272H56v-7.272Zm43.637 0v7.272h7.272v-7.272Zm-14.546 7.272v7.273h7.273v-7.273Zm58.182 0v7.273h7.273v-7.273Zm-101.818 3.637v7.272h7.273v-7.272Zm29.091 0v7.272h7.272v-7.272Zm43.636 0v7.272h7.273v-7.272Zm43.636 3.636v7.273h7.273v-7.273Zm-58.181 3.636v7.273h7.272v-7.273Zm-43.637 3.637v7.273H56v-7.273Zm29.091 3.636v7.273h7.273v-7.273ZM136 121.455v7.272h7.273v-7.272Zm-101.818 3.636v7.273h7.273v-7.273Zm29.091 0v7.273h7.272v-7.273Zm43.636 0v7.273h7.273v-7.273Zm-14.545 3.636V136h7.272v-7.273Zm58.181 0V136h7.273v-7.273ZM136 143.273v7.272h7.273v-7.272Zm-101.818 3.636v7.273h7.273v-7.273Zm58.182 0v7.273h7.272v-7.273Zm-29.091 3.636v7.273h7.272v-7.273Zm87.272 0v7.273h7.273v-7.273Z"/></svg>

<svg
    xmlns="http://www.w3.org/2000/svg"
    viewBox="0 0 192 192"
    id="vector">
    <path
        id="path"
        d="M 34.182 16 C 24.184 16 16 24.184 16 34.182 L 16 157.818 C 16 167.816 24.184 176 34.182 176 L 157.818 176 C 167.816 176 176 167.816 176 157.818 L 176 34.182 C 176 24.184 167.816 16 157.818 16 Z M 34.182 23.273 L 157.818 23.273 C 163.885 23.273 168.727 28.115 168.727 34.182 L 168.727 157.818 C 168.727 163.885 163.885 168.727 157.818 168.727 L 34.182 168.727 C 28.115 168.727 23.273 163.885 23.273 157.818 L 23.273 34.182 C 23.273 28.115 28.115 23.273 34.182 23.273 Z M 34.182 34.182 L 34.182 45.091 L 41.455 45.091 L 41.455 34.182 Z M 48.727 34.182 L 48.727 52.364 L 56 52.364 L 56 34.182 Z M 63.273 34.182 L 63.273 41.455 L 70.545 41.455 L 70.545 34.182 Z M 77.818 34.182 L 77.818 48.727 L 85.091 48.727 L 85.091 34.182 Z M 92.364 34.182 L 92.364 41.455 L 99.636 41.455 L 99.636 34.182 Z M 106.909 34.182 L 106.909 45.091 L 114.182 45.091 L 114.182 34.182 Z M 121.455 34.182 L 121.455 41.455 L 128.727 41.455 L 128.727 34.182 Z M 136 34.182 L 136 45.091 L 143.273 45.091 L 143.273 34.182 Z M 150.545 34.182 L 150.545 52.364 L 157.818 52.364 L 157.818 34.182 Z M 63.273 48.727 L 63.273 56 L 70.545 56 L 70.545 48.727 Z M 92.364 48.727 L 92.364 56 L 99.636 56 L 99.636 48.727 Z M 34.182 52.364 L 34.182 59.636 L 41.455 59.636 L 41.455 52.364 Z M 106.909 52.364 L 106.909 59.636 L 114.182 59.636 L 114.182 52.364 Z M 121.455 52.364 L 121.455 59.636 L 128.727 59.636 L 128.727 52.364 Z M 136 52.364 L 136 59.636 L 143.273 59.636 L 143.273 52.364 Z M 77.818 56 L 77.818 63.273 L 85.091 63.273 L 85.091 56 Z M 48.727 59.636 L 48.727 66.909 L 56 66.909 L 56 59.636 Z M 150.545 59.636 L 150.545 66.909 L 157.818 66.909 L 157.818 59.636 Z M 92.364 63.273 L 92.364 70.545 L 99.636 70.545 L 99.636 63.273 Z M 34.182 66.909 L 34.182 74.182 L 41.455 74.182 L 41.455 66.909 Z M 63.273 66.909 L 63.273 74.182 L 70.545 74.182 L 70.545 66.909 Z M 106.909 66.909 L 106.909 74.182 L 114.182 74.182 L 114.182 66.909 Z M 136 66.909 L 136 74.182 L 143.273 74.182 L 143.273 66.909 Z M 77.818 70.545 L 77.818 77.818 L 85.091 77.818 L 85.091 70.545 Z M 48.727 74.182 L 48.727 81.455 L 56 81.455 L 56 74.182 Z M 150.545 74.182 L 150.545 81.455 L 157.818 81.455 L 157.818 74.182 Z M 92.364 77.818 L 92.364 85.091 L 99.636 85.091 L 99.636 77.818 Z M 121.455 77.818 L 121.455 85.091 L 128.727 85.091 L 128.727 77.818 Z M 136 81.455 L 136 88.727 L 143.273 88.727 L 143.273 81.455 Z M 34.182 85.091 L 34.182 92.364 L 41.455 92.364 L 41.455 85.091 Z M 63.273 85.091 L 63.273 92.364 L 70.545 92.364 L 70.545 85.091 Z M 77.818 85.091 L 77.818 92.364 L 85.091 92.364 L 85.091 85.091 Z M 106.909 85.091 L 106.909 92.364 L 114.182 92.364 L 114.182 85.091 Z M 150.545 88.727 L 150.545 96 L 157.818 96 L 157.818 88.727 Z M 48.727 92.364 L 48.727 99.636 L 56 99.636 L 56 92.364 Z M 92.364 92.364 L 92.364 99.636 L 99.636 99.636 L 99.636 92.364 Z M 77.818 99.636 L 77.818 106.909 L 85.091 106.909 L 85.091 99.636 Z M 136 99.636 L 136 106.909 L 143.273 106.909 L 143.273 99.636 Z M 34.182 103.273 L 34.182 110.545 L 41.455 110.545 L 41.455 103.273 Z M 63.273 103.273 L 63.273 110.545 L 70.545 110.545 L 70.545 103.273 Z M 106.909 103.273 L 106.909 110.545 L 114.182 110.545 L 114.182 103.273 Z M 150.545 106.909 L 150.545 114.182 L 157.818 114.182 L 157.818 106.909 Z M 92.364 110.545 L 92.364 117.818 L 99.636 117.818 L 99.636 110.545 Z M 48.727 114.182 L 48.727 121.455 L 56 121.455 L 56 114.182 Z M 77.818 117.818 L 77.818 125.091 L 85.091 125.091 L 85.091 117.818 Z M 136 121.455 L 136 128.727 L 143.273 128.727 L 143.273 121.455 Z M 34.182 125.091 L 34.182 132.364 L 41.455 132.364 L 41.455 125.091 Z M 63.273 125.091 L 63.273 132.364 L 70.545 132.364 L 70.545 125.091 Z M 106.909 125.091 L 106.909 132.364 L 114.182 132.364 L 114.182 125.091 Z M 92.364 128.727 L 92.364 136 L 99.636 136 L 99.636 128.727 Z M 150.545 128.727 L 150.545 136 L 157.818 136 L 157.818 128.727 Z M 136 143.273 L 136 150.545 L 143.273 150.545 L 143.273 143.273 Z M 34.182 146.909 L 34.182 154.182 L 41.455 154.182 L 41.455 146.909 Z M 92.364 146.909 L 92.364 154.182 L 99.636 154.182 L 99.636 146.909 Z M 63.273 150.545 L 63.273 157.818 L 70.545 157.818 L 70.545 150.545 Z M 150.545 150.545 L 150.545 157.818 L 157.818 157.818 L 157.818 150.545 Z"
        fill="#000000"
        stroke-width="12"/>
</svg>
